svg/color/granx.svg

<?xml version="1.0" encoding="UTF-8" ?>
<!DOCTYPE svg PUBLIC "-//W3C//DTD SVG 1.1//EN" "http://www.w3.org/Graphics/SVG/1.1/DTD/svg11.dtd">
<svg width="250pt" height="250pt" viewBox="0 0 250 250" version="1.1" xmlns="http://www.w3.org/2000/svg">
<g id="#ffffffff">
<path fill="#ffffff" opacity="1.00" d=" M 0.00 0.00 L 250.00 0.00 L 250.00 250.00 L 0.00 250.00 L 0.00 0.00 M 26.44 1.67 C 13.22 4.82 2.29 16.47 0.85 30.10 C 0.97 35.07 0.06 40.22 1.90 44.99 C 3.71 51.39 7.60 56.98 12.51 61.40 C 33.37 82.27 54.24 103.14 75.11 124.00 C 75.93 124.71 75.93 125.43 75.12 126.16 C 53.63 147.66 32.09 169.11 10.60 190.62 C 4.29 196.98 0.09 205.86 0.86 214.95 C -0.14 225.78 5.61 236.36 14.17 242.74 C 27.33 252.82 47.81 251.25 59.22 239.20 C 96.59 201.57 134.45 164.45 171.87 126.87 C 172.90 126.05 173.55 124.69 172.11 123.89 C 134.25 86.06 96.44 48.18 58.56 10.37 C 50.32 2.06 37.72 -1.04 26.44 1.67 M 197.41 5.43 C 191.85 8.69 187.76 13.77 183.18 18.18 C 171.57 29.58 160.15 41.18 148.60 52.64 C 147.60 53.84 145.26 55.18 147.43 56.54 C 163.22 72.25 178.81 88.18 194.81 103.67 C 209.62 88.86 224.40 74.03 239.23 59.26 C 249.04 49.66 252.01 34.01 246.50 21.46 C 242.35 11.75 233.48 4.08 223.14 1.74 C 214.51 -0.50 205.10 0.97 197.41 5.43 M 185.67 155.58 C 172.54 168.75 159.33 181.83 146.26 195.06 C 161.15 210.09 176.14 225.00 191.11 239.94 C 203.02 251.75 223.94 252.54 236.71 241.71 C 244.84 235.36 249.05 225.06 249.42 214.92 C 248.99 206.53 246.07 198.05 240.15 191.93 C 225.12 176.77 209.96 161.75 194.91 146.62 C 191.56 149.32 188.77 152.62 185.67 155.58 Z" />
</g>
<g id="#237dc2ff">
<path fill="#237dc2" opacity="1.00" d=" M 26.44 1.67 C 37.72 -1.04 50.32 2.06 58.56 10.37 C 96.44 48.18 134.25 86.06 172.11 123.89 C 173.55 124.69 172.90 126.05 171.87 126.87 C 134.45 164.45 96.59 201.57 59.22 239.20 C 47.81 251.25 27.33 252.82 14.17 242.74 C 5.61 236.36 -0.14 225.78 0.86 214.95 C 0.09 205.86 4.29 196.98 10.60 190.62 C 32.09 169.11 53.63 147.66 75.12 126.16 C 75.93 125.43 75.93 124.71 75.11 124.00 C 54.24 103.14 33.37 82.27 12.51 61.40 C 7.60 56.98 3.71 51.39 1.90 44.99 C 0.06 40.22 0.97 35.07 0.85 30.10 C 2.29 16.47 13.22 4.82 26.44 1.67 Z" />
<path fill="#237dc2" opacity="1.00" d=" M 197.41 5.43 C 205.10 0.97 214.51 -0.50 223.14 1.74 C 233.48 4.08 242.35 11.75 246.50 21.46 C 252.01 34.01 249.04 49.66 239.23 59.26 C 224.40 74.03 209.62 88.86 194.81 103.67 C 178.81 88.18 163.22 72.25 147.43 56.54 C 145.26 55.18 147.60 53.84 148.60 52.64 C 160.15 41.18 171.57 29.58 183.18 18.18 C 187.76 13.77 191.85 8.69 197.41 5.43 Z" />
<path fill="#237dc2" opacity="1.00" d=" M 185.67 155.58 C 188.77 152.62 191.56 149.32 194.91 146.62 C 209.96 161.75 225.12 176.77 240.15 191.93 C 246.07 198.05 248.99 206.53 249.42 214.92 C 249.05 225.06 244.84 235.36 236.71 241.71 C 223.94 252.54 203.02 251.75 191.11 239.94 C 176.14 225.00 161.15 210.09 146.26 195.06 C 159.33 181.83 172.54 168.75 185.67 155.58 Z" />
</g>
</svg>

<?xml version="1.0" encoding="utf-8"?>
<!-- Generator: Adobe Illustrator 26.0.3, SVG Export Plug-In . SVG Version: 6.00 Build 0)  -->
<svg version="1.1" id="Layer_1" xmlns="http://www.w3.org/2000/svg" xmlns:xlink="http://www.w3.org/1999/xlink" x="0px" y="0px"
	 viewBox="0 0 250 250" style="enable-background:new 0 0 250 250;" xml:space="preserve">
<style type="text/css">
	.st0{fill:#237DC2;}
</style>
<g id="_x23_237dc2ff">
	<path class="st0" d="M26.4,1.7C37.7-1,50.3,2.1,58.6,10.4c37.9,37.8,75.7,75.7,113.6,113.5c1.4,0.8,0.8,2.2-0.2,3
		c-37.4,37.6-75.3,74.7-112.6,112.3c-11.4,12.1-31.9,13.6-45.1,3.5c-8.6-6.4-14.3-17-13.3-27.8c-0.8-9.1,3.4-18,9.7-24.3
		c21.5-21.5,43-43,64.5-64.5c0.8-0.7,0.8-1.5,0-2.2c-20.9-20.9-41.7-41.7-62.6-62.6C7.6,57,3.7,51.4,1.9,45c-1.8-4.8-0.9-9.9-1-14.9
		C2.3,16.5,13.2,4.8,26.4,1.7z"/>
	<path class="st0" d="M197.4,5.4c7.7-4.5,17.1-5.9,25.7-3.7c10.3,2.3,19.2,10,23.4,19.7c5.5,12.5,2.5,28.2-7.3,37.8
		c-14.8,14.8-29.6,29.6-44.4,44.4c-16-15.5-31.6-31.4-47.4-47.1c-2.2-1.4,0.2-2.7,1.2-3.9c11.5-11.5,23-23.1,34.6-34.5
		C187.8,13.8,191.9,8.7,197.4,5.4z"/>
	<path class="st0" d="M185.7,155.6c3.1-3,5.9-6.3,9.2-9c15.1,15.1,30.2,30.2,45.2,45.3c5.9,6.1,8.8,14.6,9.3,23
		c-0.4,10.1-4.6,20.4-12.7,26.8c-12.8,10.8-33.7,10-45.6-1.8c-15-14.9-30-29.9-44.9-44.9C159.3,181.8,172.5,168.8,185.7,155.6z"/>
</g>
</svg>
